icons/scan-crosshatch-32.svg

<?xml version="1.0" encoding="UTF-8"?><svg id="icons" xmlns="http://www.w3.org/2000/svg" viewBox="0 0 32 32"><rect width="32" height="32" style="fill:none; stroke-width:0px;"/><path d="m20,19v-6h10L19,2v10h-6v-7.0918c.58124-.2066,1-.75604,1-1.4082,0-.82843-.67157-1.5-1.5-1.5s-1.5.67157-1.5,1.5c0,.65216.41876,1.2016,1,1.4082v7.0918h-6l-3-2,.97095,2.5-.97095,2.5,3-2h6v6H2l11,11v-10h6v10l11-11h-10Zm0-14.69763l7.69757,7.69763h-7.69757v-7.69763Zm-8,23.3952l-7.69757-7.69757h7.69757v7.69757Zm1-8.69757v-6h6v6h-6Zm7,1h7.69757l-7.69757,7.69757v-7.69757Z" style="stroke-width:0px;"/></svg>

<svg xmlns="http://www.w3.org/2000/svg" viewBox="0 0 32 32"><path fill="none" stroke-width="0" d="M0 0h32v32H0z"/><path d="M20 19v-6h10L19 2v10h-6V4.908A1.496 1.496 0 0 0 12.5 2a1.496 1.496 0 0 0-.5 2.908V12H6l-3-2 .971 2.5L3 15l3-2h6v6H2l11 11V20h6v10l11-11H20zm0-14.698L27.698 12H20V4.302zm-8 23.396L4.302 20H12v7.698zM13 19v-6h6v6h-6zm7 1h7.698L20 27.698V20z" stroke-width="0"/></svg>
